!!!OTL: DER WINTER IST VERGANGEN
!!!ARE: Europa, Mitteleuropa, Deutschland
!!!SCT: E0393
!!!YEM: Copyright 1995, estate of Helmut Schaffrath.
**kern
*ICvox
*Ivox
*M4/4
*k[f#]
*G:
{4d
=1
4g
4g
4a
4dd
=2
2b
4b}
{4cc
=3
4a
4g
4a
4f#
=4
2g
4r}
{4d
=5
4g
4g
4a
4dd
=6
2b
4b}
{4cc
=7
4a
4g
4a
4f#
=8
2g
4r}
{8g
8a
=9
4b
4b
4b
8a
8b
=10
2cc
4cc}
{4cc
=11
4b
4g
4a
8cc
8b
=12
2a
4r}
{4c
=13
4g
4g
4a
4dd
=14
2b
4b}
{4cc
=15
4a
4g
4a
4f#
=16
2g
4r}
==
!!!AGN: Liebes - Lied, Jahreszeiten, Fruehling
!!!ONB: ESAC (Essen Associative Code) Database: ERK1
!!!AMT: simple quadruple
!!!AIN: vox
!!!EED: Helmut Schaffrath
!!!EEV: 1.0
*-
